icons/lines/illustrator.svg

<svg xmlns="http://www.w3.org/2000/svg" width="24" height="24" viewBox="0 0 24 24" fill="none" stroke="currentColor" stroke-width="2" stroke-linecap="round" stroke-linejoin="round" >
  <path d="M6.7002 16L10.2002 8L13.8002 16" stroke-miterlimit="10"/>
  <path d="M7.5 13.3H12.9" stroke-miterlimit="10"/>
  <path d="M16.2998 16V10.7" stroke-miterlimit="10"/>
  <path d="M15 22H9C4 22 2 20 2 15V9C2 4 4 2 9 2H15C20 2 22 4 22 9V15C22 20 20 22 15 22Z"/>
  <path d="M16.3398 8.03412V8.03412"/>
  </svg>

<svg xmlns="http://www.w3.org/2000/svg" width="24" height="24" viewBox="0 0 24 24" fill="none" stroke="currentColor" stroke-width="2" stroke-linecap="round" stroke-linejoin="round">
  <path d="M16.3 16v-5.3" />
  <path d="M16.34 8.034h.01" />
  <path d="m6.7 16 3.5-8 3.6 8" />
  <path d="M7.5 13.3h5.4" />
  <path d="M9 22c-5 0-7-2-7-7V9c0-5 2-7 7-7h6c5 0 7 2 7 7v6c0 5-2 7-7 7z" />
</svg>
